!!!COM: Palestrina, Giovanni Perluigi da
!!!OPR: L'homme arme (1570)
!!!OTL: Benedictus
**kern	**kern	**kern	**kern
*Ibass	*Itenor	*Icalto	*Icant
!Bassus	!Tenor	!Altus	!Cantus
*clefF4	*clefGv2	*clefG2	*clefG2
*k[]	*k[]	*k[]	*k[]
*G:mix	*G:mix	*G:mix	*G:mix
*M4/2	*M4/2	*M4/2	*M4/2
=1	=1	=1	=1
0r	0d	0r	0r
=2	=2	=2	=2
0r	1d	0r	0r
.	1e	.	.
=3	=3	=3	=3
0G	1d	0r	0r
.	2r	.	.
.	2d	.	.
=4	=4	=4	=4
1G	2.g	0r	0r
.	4f	.	.
1A	4e	.	.
.	4d	.	.
.	[2c	.	.
=5	=5	=5	=5
1G	2c]	0g	0r
.	2B	.	.
2r	2c	.	.
2G	2d	.	.
=6	=6	=6	=6
2.c	2.e	1g	0r
4B	4d	.	.
4A	[1c	1a	.
4G	.	.	.
[2F	.	.	.
=7	=7	=7	=7
2F]	1c]	1g	0r
2E	.	.	.
2F	1d	2r	.
2G	.	2g	.
=8	=8	=8	=8
1A	2r	2.cc	0r
.	2c	.	.
.	.	4b	.
2.D	2.f	4a	.
.	.	4g	.
.	.	[2f	.
4E	4e	.	.
=9	=9	=9	=9
4F	2d	2f]	0r
4G	.	.	.
2A	4c	2e	.
.	4B	.	.
2F	2A	2f	.
2C	[2c	2e	.
=10	=10	=10	=10
1G	2c]	1d	[0g
.	2B	.	.
2C	1c	1e	.
[2c	.	.	.
=11	=11	=11	=11
2c]	0G	2r	0g]
4B	.	1d	.
4A	.	.	.
2B	.	.	.
2B	.	2d	.
=12	=12	=12	=12
1c	2r	1e	0g
.	1c	.	.
1G	.	1d	.
.	2B	.	.
=13	=13	=13	=13
2r	4A	0e	[0cc
.	4B	.	.
2C	4c	.	.
.	4d	.	.
2.c	4e	.	.
.	4f	.	.
.	2g	.	.
4B	.	.	.
=14	=14	=14	=14
4A	1.a	1.f	0cc]
4G	.	.	.
1F	.	.	.
2E	2g	2g	.
=15	=15	=15	=15
2F	2f	2a	0cc
2G	4e	1g	.
.	4d	.	.
1A	1c	.	.
.	.	2f#	.
=16	=16	=16	=16
0G	2r	[0g	[0b
.	1d	.	.
.	2d	.	.
=17	=17	=17	=17
1r	1e	0g]	1b_
[1G	2d	.	1b_
.	2d	.	.
=18	=18	=18	=18
1G]	2.g	2r	0b]
.	.	2d	.
.	4f	.	.
1G	2e	2.g	.
.	2d	.	.
.	.	4f	.
=19	=19	=19	=19
0A	2c	2e	[0a
.	2f	2d	.
.	2e	2c	.
.	2d	2f	.
=20	=20	=20	=20
0A	2c	2e	1a_
.	2f	1d	.
.	1e	.	1a_
.	.	2c	.
=21	=21	=21	=21
2.D	2.d	1.f	0a]
4E	4c	.	.
1F	4A	.	.
.	4B	.	.
.	[2c	2e	.
=22	=22	=22	=22
0G	2c]	0d	[0g
.	4B	.	.
.	4A	.	.
.	1B	.	.
=23	=23	=23	=23
0C	1c	2.e	1g_
.	.	4d	.
.	2r	4e	1g_
.	.	4f	.
.	2G	[2e	.
=24	=24	=24	=24
2r	2c	2e]	0g]
2C	2c	4d	.
.	.	4c	.
2G	4d	1B	.
.	4c	.	.
2G	4d	.	.
.	4e	.	.
=25	=25	=25	=25
4A	2f	1r	0r
4G	.	.	.
4A	4e	.	.
4B	4d	.	.
2.c	2.e	2r	.
.	.	2c	.
8B	8d	.	.
8A	8c	.	.
=26	=26	=26	=26
2B	2d	2g	0r
2c	2e	2g	.
2.F	[1c	4a	.
.	.	4g	.
.	.	4a	.
8E	.	4b	.
8D	.	.	.
=27	=27	=27	=27
2E	0c]	4cc	0r
.	.	4b	.
4F	.	4a	.
4G	.	4g	.
4A	.	2f	.
4B	.	.	.
[2c	.	2e	.
=28	=28	=28	=28
2c]	2r	2d	0g
4B	2G	2d	.
4A	.	.	.
2B	2d	1G	.
2B	2d	.	.
=29	=29	=29	=29
0c	2.e	2r	1g
.	.	2c	.
.	4d	.	.
.	4e	2g	[1cc
.	4f	.	.
.	4g	2g	.
.	4e	.	.
=30	=30	=30	=30
2.F	2.f	2.a	1cc]
4G	8e	8g	.
.	8d	8f	.
1A	4c	2e	1cc
.	4d	.	.
.	4e	4c	.
.	4f	4d	.
=31	=31	=31	=31
2.E	1g	4e	0b
.	.	4f	.
.	.	2g	.
4F	.	.	.
1G	2r	2d	.
.	2G	[2g	.
=32	=32	=32	=32
0r	1.d	2g]	0a
.	.	4f	.
.	.	4e	.
.	.	2f#	.
.	2d	2f#	.
=33	=33	=33	=33
1C	2e	4g	0g
.	.	4f	.
.	1c	4e	.
.	.	8d	.
.	.	8c	.
2G	.	1d	.
2G	2B	.	.
=34	=34	=34	=34
4A	2.c	0r	0r
4G	.	.	.
4A	.	.	.
4B	4d	.	.
2c	2e	.	.
[2d	2f	.	.
=35	=35	=35	=35
4d]	1g	2r	1r
4c	.	.	.
1c	.	2c	.
.	1G	2d	1g
2B	.	2d	.
=36	=36	=36	=36
1.c	0r	4e	2g
.	.	4d	.
.	.	4e	1cc
.	.	4f	.
.	.	2g	.
2F	.	[2a	2cc
=37	=37	=37	=37
1G	2r	4a]	1b
.	.	4g	.
.	2G	1g	.
1r	2d	.	1a
.	2d	2f#	.
=38	=38	=38	=38
1C	4e	2g	[0g
.	4d	.	.
.	4e	2c	.
.	4f	.	.
2G	2e	2c	.
2G	[2d	2B	.
=39	=39	=39	=39
4E	2d]	1e	0g]
4D	.	.	.
4E	1c	.	.
4F	.	.	.
1G	.	1d	.
.	2B	.	.
=40	=40	=40	=40
1.C	1.c	1.e	[0g
2C	2c	2e	.
=41	=41	=41	=41
0G	0B	0d	0g]
==	==	==	==
*-	*-	*-	*-
!!!CDT: 1525/^1526/-1594/2/2
!!!OCY: Italia
!!!AGN: Mass (Tenor)
!!!AST: renaissance, vocal
!!!ASW: Popular Song
!!!PWK: Masses, Book 3
!!!RNB: Cadence finals: C,D
!!!YOR: Le Opere Complete, v. 6, p. 97
!!!YOO: Rome, Italy: Fratelli Scalera
!!!END: 1992//
!!!EED: John Miller
!!!YEC: Copyright 2000, John Miller
!!!YEN: United States of America
!!!YEM: Rights to all derivative electronic formats reserved.
!!!YEM: Refer to licensing agreement for further details.
!!!YEM: This file must be accompanied by the licensing agreement.
!!!YEM: A copy of the licensing agreement may be found at http://www.music-cog.ohio-state.edu/HumdrumDatabases/Palestrina/license.txt
!!!EMD: converted to Humdrum by Bret Aarden
